X: 30717
T: Origin Of The World, The
R: mazurka
M: 3/4
K: Bminor
"Bm" f>g fe cd|"G" B3 Bcd|"Em" eg gg fe|"D" f2 f2 e2|
"Bm" f>g fe cd|"G" B3 Bcd|GBd GBd|"A" c3 cdc|
"Em" BG EG BG|"D" A2 AF DF|"G" BG DG BG|"A" A3 ABc|
"Bm"d2 d2 "A"e2|"G"f>g fe de|"A" e2 ed BA|"Bm" B4 B2:|
|:"Bm" B2 BFBc|"D" d2 dcdf|"Em" e3 ffe|"A" A3 ABc|
"Bm" B2 BFBc|"D" d2 dcdf|"Em" e3 ffe|"A" ABcefa|
"Em" bge BGE|"D" afd AFD|"G" gdB GDB|"A" cEA cec|
"Bm" d2 d "A" e2 e|"G" f>g fe de|"A" e2 ed BA|"Bm" B4 B2:|

